svgs/sharp-regular/prescription-bottle-pill.svg

<svg xmlns="http://www.w3.org/2000/svg" viewBox="0 0 576 512"><!--! Font Awesome Pro 6.5.2 by @fontawesome - https://fontawesome.com License - https://fontawesome.com/license (Commercial License) Copyright 2024 Fonticons, Inc. --><path d="M336 48V80H48V48H336zM48 0H0V48 80v48H48 336h48V80 48 0H336 48zM32 160V464v48H80 304h26.8c-18.3-12.9-34.1-29.2-46.3-48H80V416h56 24V368H136 80V320h56 24V272H136 80V224h56 24V176H136 80V160H32zm320 0H304v87.2c13.8-14.6 30-26.8 48-36V160zm80 112a96 96 0 1 1 0 192 96 96 0 1 1 0-192zm0 240a144 144 0 1 0 0-288 144 144 0 1 0 0 288zM400 302.1L366.1 336l17 17 64 64 17 17L497.9 400l-17-17-64-64-17-17z"/></svg>

<svg xmlns="http://www.w3.org/2000/svg" viewBox="0 0 576 512"><!--! Font Awesome Pro 6.6.0 by @fontawesome - https://fontawesome.com License - https://fontawesome.com/license (Commercial License) Copyright 2024 Fonticons, Inc. --><path d="M336 48l0 32L48 80l0-32 288 0zM48 0L0 0 0 48 0 80l0 48 48 0 288 0 48 0 0-48 0-32 0-48L336 0 48 0zM32 160l0 304 0 48 48 0 224 0 26.8 0c-18.3-12.9-34.1-29.2-46.3-48L80 464l0-48 56 0 24 0 0-48-24 0-56 0 0-48 56 0 24 0 0-48-24 0-56 0 0-48 56 0 24 0 0-48-24 0-56 0 0-16-48 0zm320 0l-48 0 0 87.2c13.8-14.6 30-26.8 48-36l0-51.2zm80 112a96 96 0 1 1 0 192 96 96 0 1 1 0-192zm0 240a144 144 0 1 0 0-288 144 144 0 1 0 0 288zM400 302.1L366.1 336l17 17 64 64 17 17L497.9 400l-17-17-64-64-17-17z"/></svg>
